!!!OTL: 1400. Des alten Soeldlings Klage.
!!!ARE: Europa, Mitteleuropa, Deutschland, Hessen, Nassau
!!!SCT: E1400
!!!TXL: @@DE
!!!YEM: Copyright 1995, estate of Helmut Schaffrath.
**kern	**text
*ICvox	*
*M4/4	*
*met(c)	*
*k[f#]	*
*G:	*
!LO:TX:a:t=Mäßig bewegt.	!
!LO:TX:a:t=Mel. aus Heſſen-Naſſau. Aehnl. aus Franken.	!
{8d	Ed-
8d	-le
=1	=1
4g	Frei-
4d	-heit,
(8g/L	du
8b	.
8ddJ)	.
8b	mein
=2	=2
8bL	Le-
8aJ	.
4a	-ben,
4r}	.
{8b/	wie
8a	be-
=3	=3
(4g	-trübt
8f#)	.
8e	iſt
(4d	un-
8e)	.
8f#	-ſer
=4	=4
2g	Stand!
4r}	.
{8d	Stets
8d	in
=5	=5
4g	Trau-
4d	-er
4g	muß
4b/	ich
=6	=6
8bL	le-
8aJ	.
4a	-ben,
4r}	.
{8b	weil
8cc	ich
=7	=7
4dd	ein
4b	Sol-
4cc	-dat
4a	ja
=8	=8
8b	bin,
8dd	ja
8cc	bin,
8ee	ja
4dd;}	bin,
{8b	weil
8cc	ich
=9	=9
4dd	ein
4b	Sol-
4cc	-dat
8ddL	ja
8ccJ	.
=10	=10
4b	bin.
4r	.
4r}	.
==	==
!!!AGN: Staende -, Soldaten - Lied, Klage
!!!ONB: ESAC (Essen Associative Code) Database: ERK3
!!!AMT: simple quadruple
!!!AIN: vox
!!!EED: Helmut Schaffrath
!!!EEV: 1.0
!!!GTL: Staendelieder (Berufslieder). 1. Soldaten- und Kriegslieder. Soldatenlieder seit dem 30jaehr. Kriege.
!!!URL-scan: https://rosdok.uni-rostock.de/mcrviewer/recordIdentifier/rosdok_ppn745177999/iview2/phys_0270.iview2?x=-128.77276441889308&y=1181.0792419682257&scale=0.5870222003877485&rotation=0&layout=singlePageLayout
!!!ENC: Anna Maria Matuszewska
!!!EEV: 2024/12/30
*-	*-
